img/certificate/icon1.svg

<svg width="75" height="67" viewBox="0 0 75 67" fill="none" xmlns="http://www.w3.org/2000/svg">
<path fill-rule="evenodd" clip-rule="evenodd" d="M0.479744 0.160495C0.294445 0.329033 0.27967 2.80764 0.281365 33.5189C0.282455 51.7661 0.326781 66.7578 0.379948 66.8339C0.456248 66.9433 2.16596 66.9664 8.52267 66.944L16.5689 66.9157L16.6028 63.556C16.6214 61.7081 16.6068 60.0847 16.5702 59.9484L16.5037 59.7005H12.683C10.2611 59.7005 8.77603 59.6585 8.62622 59.5855C8.39405 59.4725 8.39078 59.2839 8.43172 48.4605C8.45461 42.4049 8.51443 37.4129 8.56469 37.3672C8.61495 37.3214 10.4365 37.2591 12.6124 37.2289L16.5689 37.1738L16.6008 33.6012C16.6258 30.8164 16.599 30.0092 16.4797 29.9402C16.3956 29.8916 14.5749 29.8511 12.4338 29.8501C8.91058 29.8486 8.53357 29.8309 8.46332 29.6645C8.34233 29.3776 8.39708 7.77068 8.51928 7.59069C8.60829 7.4595 9.31715 7.42226 12.5979 7.37677L16.5689 7.32169L16.5983 3.8518C16.6157 1.78462 16.5809 0.315153 16.5118 0.216674C16.4114 0.0732519 15.361 0.0465943 8.53805 0.0148695C1.35779 -0.0185075 0.662741 -0.00594956 0.479744 0.160495ZM25.1372 0.107731L24.8645 0.209734L24.8949 33.5547L24.9255 66.8998L25.2282 66.9629C25.3948 66.9976 27.2068 67.0102 29.2552 66.9911L32.9793 66.9562V52.2161C32.9793 39.8745 33.0063 37.4558 33.1451 37.351C33.2633 37.2618 34.4553 37.2341 37.2931 37.2549L41.2753 37.2839L41.3061 52.1274L41.3367 66.9708H45.3194H49.3022L49.3717 66.6128C49.4866 66.0211 49.4383 0.377171 49.3229 0.207311C49.2329 0.0749044 47.4262 0.0480263 37.3135 0.0286389C30.2325 0.0150898 25.2994 0.0471453 25.1372 0.107731ZM58.2005 0.0692862C58.0799 0.113569 58.0491 6.91257 58.0491 33.5478V66.9708H66.1635H74.2779V63.3357V59.7005H70.2855C66.4343 59.7005 66.2886 59.6928 66.1652 59.4831C66.0005 59.2032 65.9997 7.83821 66.1643 7.59565C66.2578 7.45795 66.9083 7.42303 70.2463 7.37677L74.2173 7.32169L74.2493 3.76709L74.2812 0.212378L73.9689 0.104426C73.6507 -0.00561938 58.4965 -0.0393269 58.2005 0.0692862ZM41.1321 7.51446C41.3238 7.64268 41.3358 8.41267 41.3066 18.7228L41.2753 29.7934L37.2263 29.8225C34.0676 29.845 33.156 29.8209 33.0802 29.7123C32.9585 29.5379 32.9503 7.80814 33.0719 7.6374C33.2254 7.42193 33.553 7.40266 37.2858 7.38955C40.0262 7.37996 40.9772 7.41081 41.1321 7.51446Z" fill="white"/>
</svg>

<svg width="75" height="67" fill="none" xmlns="http://www.w3.org/2000/svg"><path fill-rule="evenodd" clip-rule="evenodd" d="M.48.16C.294.33.28 2.808.28 33.52c.002 18.246.047 33.238.1 33.314.076.11 1.786.132 8.143.11l8.046-.028.034-3.36c.018-1.848.004-3.471-.033-3.608l-.066-.248h-3.821c-2.422 0-3.907-.042-4.057-.114-.232-.114-.235-.302-.194-11.125.023-6.056.082-11.048.133-11.094.05-.046 1.872-.108 4.047-.138l3.957-.055.032-3.573c.025-2.785-.002-3.592-.121-3.66-.084-.05-1.905-.09-4.046-.09-3.523-.002-3.9-.02-3.97-.186-.122-.287-.067-21.894.055-22.074.09-.131.798-.169 4.079-.214l3.97-.055.03-3.47c.018-2.067-.017-3.537-.086-3.635-.1-.144-1.151-.17-7.974-.202C1.358-.02.663-.005.48.16zM25.137.108l-.273.102.03 33.345.032 33.345.302.063c.167.035 1.979.047 4.027.028l3.724-.035v-14.74c0-12.342.027-14.76.166-14.865.118-.09 1.31-.117 4.148-.096l3.982.029.031 14.843.03 14.844h7.966l.07-.358c.115-.592.066-66.236-.05-66.406-.09-.132-1.896-.159-12.009-.178C30.233.015 25.3.047 25.137.108zM58.2.069c-.12.045-.15 6.844-.15 33.479V66.97h16.228V59.7h-3.993c-3.85 0-3.996-.007-4.12-.217-.165-.28-.165-51.645 0-51.887.093-.138.743-.173 4.081-.22l3.971-.054.032-3.555.032-3.555-.312-.108C73.65-.006 58.497-.039 58.2.07zM41.132 7.514c.192.129.204.899.175 11.209l-.032 11.07-4.049.03c-3.158.022-4.07-.002-4.146-.11-.121-.175-.13-21.905-.008-22.076.153-.215.481-.234 4.214-.247 2.74-.01 3.691.02 3.846.124z" fill="#fff"/></svg>
